X: 23757
T: Little Christmas
R: waltz
M: 3/4
K: Dmajor
|:B2 G2 Bd|ce A2 A/B/c|d2 dg fd|g3g ed|
B2 G2 Bd|ce A2 A/B/c|d2 ef ec|dA FA D2|
B2 G2 Bd|ce A2 A/B/c|d2 de fa|g3f ga|
bg eg bg|af df af|e/f/g ed A/B/c|1 d3d dc:|2 d3d cd||
|:B3d cd|A3d cA|GF GB AG|F4 GF|EF GA Bd|
ce A2 A/B/c|1 B2 BA FA|F3d cd:|2 d2 f2 ec|dA FA D2||

